X: 1
T: Hunt For Wild Flora
M: 4/4
L: 1/8
R: reel
K: D Major
|: Dd=cA FGAE | =FAEF EFAD | =CDEG cBdc | gfa=f ed=cA |
Dd=cA FGAE | =FAEF EFAD | =CDEG cBAG | E=FFE ~D3 E :|
|: DFAc ~d3 c | dcBc BAFA | G ~E3 FEDE | DB,DE DB,A,B, |
DFAc ~d3 f | fgfe dcBc | d ~B3 A ~F3 | AFEF ~D3 E :|
=CDFG ADED | B,DFD ADED | A,DFD ADED | dDCD BDAD |
=CDFG ADED | B,DFD ADED | A,DD/D/D A,EE/E/E | ~E3 A cdec |
|: d2d'd c'dbd | afab afed | B2 gB bBaB | ~g3 a gfed |
A2aA gAfA | fgfe dcBc | d ~B3 A ~F3 |1 ~E3 A cdec :|
2 ~E3 F [D4A,4] |
